X: 20
T: King Of The Fairies
Z: Andrea Abler
S: https://thesession.org/tunes/475#setting53119
R: hornpipe
M: 4/4
L: 1/8
K: Edor
|:D2|"Em"EDEF GFGA|"Bm"B2BA GFGA|"Em"B2E2EFGE|"D"FGFED4|
"Em"EDEF GFGA|"Bm"BAGBd2dc|"D"B2E2GFED|"Em"E6:|
|:(3Bcd|"Em"(3efeB2 Bdef|"Bm"gagf edef|"Em"(3efe B2BABc|"D"dedc Bc (3dcB|
"Em"(3efe B2 Bdef|"Bm"gagf efed|"D"Bdeg fedf|"Em"e6ef|
"Em"g2 (3gfe f2(3fed|"Bm"edBc d3e|"Em"dBAF GABc|"D"dBAF (3GFE (3FED|
"Em"E2ED EFGA|"Bm"B2e2 edef|"D"(3efe B2 BAGF|"Em"E6:|

%-------------------- TUNE SEPARATOR --------------------%

